dist/img/reviews/review-logo.svg

<svg width="161" height="42" viewBox="0 0 161 42" fill="none" xmlns="http://www.w3.org/2000/svg">
<g clip-path="url(#clip0_7106_11167)">
<path fill-rule="evenodd" clip-rule="evenodd" d="M16.8225 1.03121C16.1709 1.15634 16.156 1.24745 16.156 5.13252V9.10544H17.0446H17.9332V13.247V17.3885H16.8965H15.8599V20.3468V23.305H16.8965H17.9332V30.4418V37.5786L17.111 37.4144C16.6587 37.3239 15.5278 36.9656 14.5978 36.618C13.6674 36.2704 12.0953 35.4451 11.1036 34.7836C10.1117 34.1221 8.62151 32.7667 7.79129 31.7712C6.96135 30.7755 5.90247 29.1508 5.43804 28.1601C4.97361 27.1697 4.3987 25.4391 4.15997 24.3144C3.92154 23.1899 3.72634 21.6706 3.72634 20.9384C3.72634 20.2063 3.91917 18.6973 4.15523 17.5853C4.391 16.4732 4.90312 14.8758 5.2932 14.0354C5.68329 13.1949 6.60326 11.6989 7.33782 10.7106C8.07237 9.72224 9.48313 8.32446 10.4727 7.60443L12.2721 6.29511L12.2887 4.4462C12.2981 3.42946 12.1835 2.5973 12.0342 2.5973C11.885 2.5973 10.7766 3.2561 9.5714 4.06134C8.3659 4.86657 6.75787 6.1892 5.99784 7.00095C5.23781 7.81239 4.10221 9.26992 3.47458 10.2399C2.84695 11.2096 1.96163 13.115 1.50698 14.4741C0.944211 16.1558 0.632617 17.8045 0.531023 19.6374C0.447497 21.1446 0.538132 23.2281 0.736877 24.3706C0.932363 25.4929 1.43382 27.2765 1.85115 28.334C2.26849 29.3916 3.19912 31.1506 3.91917 32.2431C4.63921 33.3353 6.0088 34.9327 6.96313 35.793C7.91717 36.6529 9.4316 37.7986 10.3285 38.3391C11.2253 38.8793 12.9323 39.6594 14.1212 40.0724C15.3548 40.5007 17.2739 40.8912 18.5893 40.9811L20.8951 41.1391L20.901 37.325L20.907 33.511L24.4281 29.8132C26.9451 27.17 27.9999 26.242 28.1267 26.5591C28.2241 26.8031 29.0075 29.512 29.8674 32.5788L31.431 38.1545L32.9013 36.9925C33.7102 36.3533 35.0691 35.0673 35.9212 34.1352C36.7835 33.1918 37.9976 31.3654 38.6581 30.0173C39.3112 28.6846 40.0567 26.7958 40.3147 25.8195C40.6023 24.7315 40.7824 22.8424 40.7797 20.9384C40.777 19.0812 40.5884 17.1184 40.3105 16.0573C40.0546 15.0811 39.291 13.1508 38.613 11.7679C37.6232 9.74827 36.8806 8.75666 34.8396 6.73056C33.0775 4.98076 31.6448 3.86757 30.1659 3.09843C28.9933 2.48814 27.0059 1.72669 25.75 1.40572C24.1319 0.992453 22.5947 0.834187 20.4775 0.862586C18.8339 0.884773 17.1889 0.960504 16.8225 1.03121ZM24.3739 4.52075C25.391 4.76037 27.1238 5.39077 28.2241 5.92148C29.5638 6.56786 30.9174 7.571 32.3207 8.95753C33.4732 10.0965 34.8413 11.78 35.3611 12.6988C35.8807 13.6177 36.5705 15.403 36.8939 16.6658C37.2174 17.929 37.4798 19.8394 37.4774 20.9118C37.4751 21.9839 37.2707 23.7195 37.0231 24.7685C36.7755 25.8175 36.1724 27.4815 35.6831 28.4663C35.1935 29.4511 34.4234 30.7042 33.9714 31.2506L33.1498 32.2442L32.0189 28.1444C31.3969 25.8896 30.8247 23.8783 30.7471 23.6748C30.6618 23.4515 30.8531 23.305 31.2302 23.305C31.8231 23.305 31.8542 23.158 31.8542 20.3468V17.3885H30.4242H28.9942L27.7511 12.8772C27.0672 10.3958 26.3717 7.86682 26.2053 7.25654L25.9025 6.1472H22.6584H19.4142V5.11181V4.07642L20.9692 4.08086C21.8246 4.08323 23.3565 4.28113 24.3739 4.52075ZM23.682 10.534C23.9498 11.8075 23.9426 11.8232 22.4232 13.3408L20.8951 14.8669V11.9693V9.07142L22.1539 9.16254C23.3787 9.25099 23.4202 9.28797 23.682 10.534ZM25.6117 17.1667C25.6241 17.2885 24.9408 17.3885 24.0931 17.3885H22.552L23.7181 16.1958L24.8842 15.003L25.2367 15.9739C25.4304 16.5079 25.5992 17.0448 25.6117 17.1667ZM24.1897 25.9275C22.8713 27.3699 21.5906 28.7174 21.3439 28.9221C20.9481 29.2502 20.8951 28.9408 20.8951 26.2994V23.305H23.7409H26.5868L24.1897 25.9275Z" fill="#2A2A2A"/>
<path d="M55.1735 34.1191L55.9236 30.437C56.6964 30.5734 57.3555 30.6416 57.901 30.6416C58.6965 30.6416 59.3556 30.4597 59.8784 30.0961C60.4239 29.7324 60.9353 29.0846 61.4126 28.1528L51.9688 9.81055H56.5373L63.6969 23.7547L70.8905 9.81055H75.3568L65.6061 28.6301C64.5606 30.6757 63.4696 32.153 62.3331 33.0622C61.2194 33.9714 59.8557 34.4259 58.2419 34.4259C56.9918 34.4259 55.969 34.3237 55.1735 34.1191Z" fill="#2A2A2A"/>
<path d="M91.4816 9.81055V13.629H81.5263V34.0168H77.5033V9.81055H91.4816Z" fill="#2A2A2A"/>
<path d="M94.4341 34.0168V9.81055H98.423V19.834H110.39V9.81055H114.379V34.0168H110.39V23.6183H98.423V34.0168H94.4341Z" fill="#2A2A2A"/>
<path d="M124.36 34.0168V13.629H117.337V9.81055H135.406V13.629H128.349V34.0168H124.36Z" fill="#2A2A2A"/>
<path d="M139.511 34.1191L140.261 30.437C141.033 30.5734 141.693 30.6416 142.238 30.6416C143.034 30.6416 143.693 30.4597 144.215 30.0961C144.761 29.7324 145.272 29.0846 145.75 28.1528L136.306 9.81055H140.874L148.034 23.7547L155.228 9.81055H159.694L149.943 28.6301C148.898 30.6757 147.807 32.153 146.67 33.0622C145.556 33.9714 144.193 34.4259 142.579 34.4259C141.329 34.4259 140.306 34.3237 139.511 34.1191Z" fill="#2A2A2A"/>
</g>
<defs>
<clipPath id="clip0_7106_11167">
<rect width="160" height="40.2797" fill="white" transform="translate(0.5 0.859375)"/>
</clipPath>
</defs>
</svg>

<svg width="161" height="42" viewBox="0 0 161 42" fill="none" xmlns="http://www.w3.org/2000/svg"><g clip-path="url(#clip0_7106_11167)" fill="#2A2A2A"><path fill-rule="evenodd" clip-rule="evenodd" d="M16.823 1.031c-.652.125-.667.216-.667 4.102v3.972h1.777v8.284H15.86v5.916h2.073v14.274l-.822-.165c-.452-.09-1.583-.448-2.513-.796-.93-.348-2.503-1.173-3.494-1.834-.992-.662-2.482-2.017-3.313-3.013-.83-.995-1.889-2.62-2.353-3.61-.464-.991-1.04-2.722-1.278-3.847-.238-1.124-.434-2.643-.434-3.376 0-.732.193-2.24.43-3.353.235-1.112.747-2.71 1.137-3.55.39-.84 1.31-2.336 2.045-3.324.734-.989 2.145-2.387 3.135-3.107l1.8-1.309.016-1.849c.01-1.017-.105-1.849-.255-1.849-.149 0-1.257.66-2.463 1.464-1.205.806-2.813 2.128-3.573 2.94-.76.811-1.896 2.269-2.523 3.239-.628.97-1.513 2.875-1.968 4.234a19.215 19.215 0 00-.976 5.163c-.084 1.508.007 3.591.206 4.734.195 1.122.697 2.905 1.114 3.963.417 1.058 1.348 2.817 2.068 3.91.72 1.091 2.09 2.689 3.044 3.549.954.86 2.469 2.006 3.365 2.546.897.54 2.604 1.32 3.793 1.733 1.234.429 3.153.82 4.468.91l2.306.157.006-3.814.006-3.814 3.521-3.698c2.517-2.643 3.572-3.571 3.699-3.254.097.244.88 2.953 1.74 6.02l1.564 5.575 1.47-1.162c.81-.639 2.168-1.925 3.02-2.857.862-.943 2.077-2.77 2.737-4.118.653-1.332 1.399-3.221 1.657-4.197.287-1.088.467-2.978.465-4.882-.003-1.857-.192-3.82-.47-4.88-.255-.977-1.019-2.907-1.697-4.29-.99-2.02-1.732-3.011-3.773-5.037-1.763-1.75-3.195-2.863-4.674-3.633-1.173-.61-3.16-1.371-4.416-1.692-1.618-.414-3.155-.572-5.273-.543-1.643.022-3.288.098-3.654.168zm7.55 3.49c1.018.24 2.75.87 3.851 1.4 1.34.647 2.693 1.65 4.097 3.037 1.152 1.139 2.52 2.822 3.04 3.74.52.92 1.21 2.705 1.533 3.968.323 1.263.586 3.173.583 4.246-.002 1.072-.206 2.808-.454 3.857-.248 1.049-.85 2.713-1.34 3.697-.49.985-1.26 2.238-1.712 2.785l-.821.993-1.131-4.1c-.622-2.254-1.194-4.266-1.272-4.47-.085-.223.106-.369.483-.369.593 0 .624-.147.624-2.958v-2.959h-2.86l-1.243-4.51c-.684-2.482-1.38-5.011-1.546-5.621l-.302-1.11h-6.49V4.076l1.555.005c.856.002 2.387.2 3.405.44zm-.691 6.013c.268 1.273.26 1.29-1.259 2.807l-1.528 1.526V9.07l1.259.092c1.225.088 1.266.125 1.528 1.371zm1.93 6.633c.012.121-.671.221-1.519.221h-1.541l1.166-1.192 1.166-1.193.353.97c.193.535.362 1.072.375 1.194zm-1.422 8.76c-1.319 1.443-2.6 2.79-2.846 2.995-.396.328-.449.019-.449-2.623v-2.994h5.692l-2.397 2.622z"/><path d="M55.173 34.12l.75-3.683c.773.136 1.432.205 1.978.205.795 0 1.455-.182 1.977-.546.546-.364 1.057-1.011 1.535-1.943L51.969 9.81h4.568l7.16 13.944L70.89 9.81h4.466l-9.75 18.82c-1.046 2.045-2.137 3.522-3.274 4.431-1.114.91-2.477 1.364-4.091 1.364-1.25 0-2.273-.102-3.069-.307zM91.482 9.81v3.819h-9.956v20.388h-4.023V9.81h13.979zm2.952 24.207V9.81h3.989v10.023h11.967V9.811h3.989v24.206h-3.989V23.618H98.423v10.399h-3.989zm29.926 0V13.629h-7.023V9.811h18.069v3.818h-7.057v20.388h-3.989zm15.151.103l.75-3.683c.772.136 1.432.205 1.977.205.796 0 1.455-.182 1.977-.546.546-.364 1.057-1.011 1.535-1.943L136.306 9.81h4.568l7.16 13.944 7.194-13.944h4.466l-9.751 18.82c-1.045 2.045-2.136 3.522-3.273 4.431-1.114.91-2.477 1.364-4.091 1.364-1.25 0-2.273-.102-3.068-.307z"/></g><defs><clipPath id="clip0_7106_11167"><path fill="#fff" transform="translate(.5 .86)" d="M0 0h160v40.28H0z"/></clipPath></defs></svg>
